!!!OTL: 96. Der alte Feldherr.
!!!ARE: Europa, Mitteleuropa, Frankreich
!!!COM: Volksweise
!!!ODT: 1826
!!!SCT: B0096
!!!TXL: @@DE
!!!YEM: Copyright 1995, estate of Helmut Schaffrath.
**kern	**text
*ICvox	*
*Ivox	*
*M4/4	*
*met(c)	*
*clefG2	*
*k[b-e-a-]	*
*E-:	*
!LO:TX:a:t=Gehend	!
{8b-	Denkſt
!LO:TX:a:t=Thaddäus(=Kosʒiusko)	!
8b-	du
8b-	da-
=1	=1
4.b-	-ran,
8g	mein
8g	tapf-
8g	-rer
8g	La-
8g	-gi-
=2	=2
4g	-en-
4e-	-ka,
8r}	.
{8e-	daß
8e-	ich
8e-	der-
=3	=3
4.f	-einſt
8e-	in
8.d	un-
16f	-ſerm
8.cc	Va-
16b-	-ter-
=4	=4
2g	-land
8r}	.
{8b-	an
8b-	eu-
8b-	-rer
=5	=5
4.b-	Spi-
8g	-tƷe,
8g	nah
8g	bei
8g	Du-
8g	-bi-
=6	=6
4g	-en-
4e-	-ka,
8r}	.
{8e-	Vier-
8e-	-tau-
8e-	-ſend
=7	=7
4.f	ge-
8e-	-gen
8.d	Sech-
16f	-ʒehn-
8.cc	-tau-
16b-	-ſend
=8	=8
2g	ſtand?
8r}	.
{8e-	Denkſt
8e-	du
8e-	da-
=9	=9
4.a-	-ran,
8a-	wie
8a-	ich,
8a-	vom
8b-	Feind
8cc	um-
=10	=10
8b-L	-ge-
8gJ	.
4e-	-ben,
8r}	.
{8e-	mit
8e-	Mü-
8e-	-he
=11	=11
4.a-	nur
8a-	die
8a-	Frei-
8ee-	-heit
8dd	uns
8cc	ge-
=12	=12
2b-	-wann?
8r}	.
{8b-	Jch
8b-	den-
8b-	-ke
=13	=13
4.b-	dein,
8g	ich
8g	dan-
8g	-ke
8g	dir
8g	mein
=14	=14
4g	Le-
4e-	-ben:
8r}	.
{8e-	doch
8e-	du,
8e-	Sol-
=15	=15
4.f	-dat,
8e-	Sol-
8.d	-dat,
16f	denkſt
8.cc	du
16b-	da-
=16	=16
2g	-ran?
8r}	.
{8e-	Jch
8e-	den-
8e-	-ke
=17	=17
4.cc	dran,
8b-	ich
8a-	dan-
8a-	-ke
8b-	dir
8cc	mein
=18	=18
4cc	Le-
4b-	-ben,
8r}	.
{8b-	doch
8ee-	du,
8g	Sol-
=19	=19
4.f	-dat,
8e-	Sol-
8.d	-dat,
16f	denkſt
8.cc	du
16b-	da-
=20	=20
2e-	-ran?
8r}	.
==	==
!!!AGN: Helden -, Ehren -, Gedaechtnis -, Kriegs - Lied
!!!GTL: Helden- und Ehrengedächtnißlieder
!!!ONB: ESAC (Essen Associative Code) Database: BOEHME
!!!AMT: simple quadruple
!!!AIN: vox
!!!EED: Helmut Schaffrath
!!!EEV: 1.0
!!Franʒ. Volksweiſe. Seit 1826 in Deutſchl. viel geſungen.
!!@@COMMENT:"Aus dem Liederſpiel: Der alte Feldher, von K. v. Holtei 1826. (Nach des Dichters eigener
!!Aufʒeichnung 1826 ʒuerſt in Berlin gegeben. ) Holtei's Text iſt nach Hoffmann (Volksthümliche
!!Lieder 144) nur eine Nachbildung des franʒ. Liedes von Emile Debraux, gedichtet 1815.[...
!!Die Melodie ist aus frankreich nach Polen gekommen. Der Kantor Jakob zu Hainau in Schlesien lies sich 1840
!! in Bad Altwasser von jungen Polenmädchen den poln. Text vorsingen und die Melodie stimmte mit der bei Holtei überein.]"
!!@@END:
!!Text: K. v. Holtei
!!!URL-scan: https://archive.org/details/BoehmeVtLieder1895/page/n105/mode/2up
!!!ENC: Anna Maria Matuszewska
!!!EEV: 2024/17/06
*-	*-
